X:4817
T:Old Ruined Cottage in the Glen, The
O:england
R:reel
M:C|
K:D
B2AF DEFA|BdAd Bdef|dBAF DEFA|BdAF FE~E2:|
Beed BddA|Beef gfed|Beed BddA|BdAF FE~E2|
Beed BddA|Bdef ~g3a|b2af gefd|BdAF FE~E2||


